assets/logo/light_logo.svg

<svg fill="none" height="146" viewBox="0 0 650 146" width="650" xmlns="http://www.w3.org/2000/svg"><g fill="#212121"><path d="m259.945 114.166c-5.116 0-9.876-.939-14.28-2.817-4.338-1.878-8.159-4.469-11.462-7.772-3.238-3.367-5.764-7.3174-7.577-11.8506-1.813-4.5331-2.72-9.5196-2.72-14.9594 0-5.3751.875-10.3292 2.623-14.8624 1.813-4.5979 4.339-8.5482 7.577-11.851 3.238-3.3675 7.026-5.9578 11.365-7.7711 4.339-1.878 9.099-2.817 14.28-2.817 5.116 0 9.681.8742 13.696 2.6227 4.08 1.7485 7.512 4.0475 10.297 6.8969 2.785 2.7847 4.792 5.8284 6.023 9.1311l-10.2 4.9541c-1.489-3.9503-3.95-7.1235-7.382-9.5196-3.433-2.4609-7.577-3.6913-12.434-3.6913-4.793 0-9.034 1.1333-12.726 3.3998-3.691 2.2666-6.573 5.4075-8.645 9.4226-2.008 4.0151-3.011 8.7101-3.011 14.0852 0 5.375 1.036 10.1025 3.108 14.1823 2.137 4.0151 5.051 7.156 8.743 9.4227 3.691 2.202 7.933 3.303 12.725 3.303 4.015 0 7.674-.81 10.977-2.429 3.367-1.6837 6.055-4.015 8.062-6.9939 2.008-3.0437 3.012-6.5731 3.012-10.5882v-4.9541l5.148 4.6626h-27.393v-9.7139h33.61v6.7998c0 5.3103-.907 10.0701-2.72 14.2795-1.813 4.1446-4.274 7.6742-7.383 10.5882-3.108 2.914-6.67 5.116-10.685 6.605-4.015 1.49-8.224 2.235-12.628 2.235z"/><path d="m320.643 114.166c-3.562 0-6.703-.616-9.423-1.846-2.655-1.295-4.727-3.044-6.217-5.246-1.489-2.266-2.234-4.921-2.234-7.965 0-2.8494.615-5.4074 1.846-7.674 1.295-2.2666 3.27-4.177 5.925-5.7312s5.99-2.6551 10.006-3.3027l18.262-3.0114v8.6454l-16.125 2.8171c-2.915.5181-5.052 1.4571-6.412 2.817-1.36 1.2952-2.04 2.979-2.04 5.0513 0 2.0075.745 3.6585 2.235 4.9545 1.554 1.23 3.529 1.845 5.925 1.845 2.979 0 5.569-.647 7.771-1.943 2.267-1.295 4.015-3.011 5.246-5.1479 1.23-2.2019 1.845-4.6304 1.845-7.2855v-13.5024c0-2.5904-.971-4.695-2.914-6.314-1.878-1.6838-4.403-2.5257-7.577-2.5257-2.914 0-5.472.7772-7.674 2.3314-2.137 1.4895-3.723 3.4322-4.759 5.8284l-9.132-4.5656c.972-2.5904 2.558-4.857 4.76-6.7998 2.202-2.0075 4.76-3.5617 7.674-4.6626 2.979-1.101 6.12-1.6514 9.423-1.6514 4.144 0 7.803.7771 10.977 2.3313 3.238 1.5543 5.731 3.7237 7.479 6.5084 1.814 2.7199 2.72 5.8931 2.72 9.5196v35.3588h-10.491v-9.52l2.234.292c-1.23 2.137-2.817 3.982-4.759 5.537-1.878 1.554-4.048 2.752-6.509 3.594-2.396.842-5.083 1.263-8.062 1.263z"/><path d="m383.757 113.583c-5.504 0-9.778-1.554-12.822-4.663-3.044-3.108-4.566-7.48-4.566-13.1137v-25.4505h-9.228v-9.9082h1.457c2.461 0 4.372-.7124 5.732-2.1371s2.039-3.3675 2.039-5.8284v-4.0798h10.977v12.0453h11.948v9.9082h-11.948v24.9648c0 1.8133.292 3.3675.874 4.6627.583 1.2307 1.522 2.2017 2.818 2.9137 1.295.648 2.978.972 5.051.972.518 0 1.101-.033 1.748-.097.648-.065 1.263-.13 1.846-.195v9.423c-.907.129-1.91.259-3.011.389-1.101.129-2.073.194-2.915.194z"/><path d="m425.03 114.166c-5.245 0-9.908-1.198-13.988-3.595-4.015-2.46-7.156-5.763-9.422-9.908-2.267-4.2091-3.4-8.9042-3.4-14.085 0-5.3102 1.133-10.0053 3.4-14.0852 2.331-4.0798 5.439-7.2854 9.325-9.6168 3.886-2.3961 8.289-3.5941 13.211-3.5941 3.95 0 7.48.68 10.588 2.0399 3.109 1.36 5.731 3.238 7.869 5.6341 2.137 2.3313 3.756 5.0189 4.856 8.0626 1.166 3.0437 1.749 6.2816 1.749 9.7139 0 .8419-.032 1.7161-.097 2.6228-.065.9066-.194 1.7485-.389 2.5256h-41.867v-8.7426h35.65l-5.245 3.9828c.647-3.1733.421-5.9903-.68-8.4512-1.036-2.5256-2.655-4.5008-4.857-5.9255-2.137-1.4894-4.663-2.2342-7.577-2.2342s-5.505.7448-7.771 2.2342c-2.267 1.4247-4.015 3.497-5.246 6.217-1.23 2.6551-1.716 5.8931-1.457 9.7139-.324 3.5618.162 6.6702 1.457 9.3254 1.36 2.6551 3.238 4.7274 5.634 6.2164 2.461 1.49 5.246 2.235 8.354 2.235 3.174 0 5.861-.713 8.063-2.137 2.267-1.425 4.047-3.2707 5.343-5.5373l8.936 4.3713c-1.036 2.461-2.655 4.695-4.856 6.703-2.138 1.942-4.728 3.497-7.772 4.662-2.979 1.101-6.249 1.652-9.811 1.652z"/><path d="m473.567 113-18.068-52.5524h11.656l13.794 41.8674h-4.08l14.085-41.8674h10.006l13.988 41.8674h-4.08l13.891-41.8674h11.657l-18.165 52.5524h-9.909l-14.182-42.8385h3.594l-14.182 42.8385z"/><path d="m558.691 114.166c-3.562 0-6.703-.616-9.423-1.846-2.655-1.295-4.727-3.044-6.216-5.246-1.49-2.266-2.235-4.921-2.235-7.965 0-2.8494.616-5.4074 1.846-7.674 1.295-2.2666 3.27-4.177 5.926-5.7312 2.655-1.5542 5.99-2.6551 10.005-3.3027l18.262-3.0114v8.6454l-16.125 2.8171c-2.914.5181-5.051 1.4571-6.411 2.817-1.36 1.2952-2.04 2.979-2.04 5.0513 0 2.0075.745 3.6585 2.234 4.9545 1.554 1.23 3.529 1.845 5.926 1.845 2.978 0 5.569-.647 7.771-1.943 2.266-1.295 4.015-3.011 5.245-5.1479 1.231-2.2019 1.846-4.6304 1.846-7.2855v-13.5024c0-2.5904-.972-4.695-2.914-6.314-1.878-1.6838-4.404-2.5257-7.577-2.5257-2.914 0-5.472.7772-7.674 2.3314-2.137 1.4895-3.724 3.4322-4.76 5.8284l-9.131-4.5656c.971-2.5904 2.558-4.857 4.76-6.7998 2.202-2.0075 4.76-3.5617 7.674-4.6626 2.979-1.101 6.119-1.6514 9.422-1.6514 4.145 0 7.804.7771 10.977 2.3313 3.238 1.5543 5.731 3.7237 7.48 6.5084 1.813 2.7199 2.72 5.8931 2.72 9.5196v35.3588h-10.491v-9.52l2.234.292c-1.231 2.137-2.817 3.982-4.76 5.537-1.878 1.554-4.048 2.752-6.508 3.594-2.397.842-5.084 1.263-8.063 1.263z"/><path d="m604.686 134.468c-1.295 0-2.59-.13-3.885-.389-1.231-.194-2.364-.518-3.4-.971v-9.423c.777.195 1.716.356 2.817.486 1.101.194 2.17.291 3.206.291 3.043 0 5.278-.68 6.702-2.04 1.49-1.295 2.817-3.335 3.983-6.119l3.497-7.966-.194 9.229-22.731-57.1184h11.754l16.805 43.8094h-3.983l16.708-43.8094h11.851l-23.216 58.2834c-1.23 3.109-2.785 5.829-4.663 8.16-1.813 2.396-3.982 4.242-6.508 5.537-2.461 1.36-5.375 2.04-8.743 2.04z"/></g><path d="m0 35.6098c0-19.6668 15.943-35.6098 35.6098-35.6098h74.7802c19.667 0 35.61 15.943 35.61 35.6098v74.7802c0 19.667-15.943 35.61-35.61 35.61h-74.7802c-19.6668 0-35.6098-15.943-35.6098-35.61z" fill="#e6d5fa"/><path d="m72.6798 39.1698c-4.4006 0-8.7581.852-12.8237 2.5073-4.0657 1.6554-7.7598 4.0816-10.8715 7.1403s-5.5801 6.6899-7.2641 10.6862c-1.6841 3.9963-2.5508 8.2796-2.5508 12.6052s.8667 8.6089 2.5508 12.6052c1.684 3.9964 4.1524 7.6275 7.2641 10.6862s6.8058 5.4848 10.8715 7.1398c4.0656 1.656 8.4231 2.508 12.8237 2.508z" fill="#771ac9"/><path d="m77.787 39.1698h2.234c14.8057 0 26.808 11.7979 26.808 26.3512z" fill="#771ac9"/><path d="m106.829 81.5438v23.5042h-29.042v-23.5042c0-7.6361 6.5013-13.8263 14.521-13.8263 8.02 0 14.521 6.1902 14.521 13.8263z" fill="#771ac9"/></svg>

<svg width="650" height="146" viewBox="0 0 650 146" fill="none" xmlns="http://www.w3.org/2000/svg">
<path d="M259.945 114.166C254.829 114.166 250.069 113.227 245.665 111.349C241.327 109.471 237.506 106.88 234.203 103.577C230.965 100.21 228.439 96.2596 226.626 91.7264C224.813 87.1933 223.906 82.2068 223.906 76.767C223.906 71.3919 224.781 66.4378 226.529 61.9046C228.342 57.3067 230.868 53.3564 234.106 50.0536C237.344 46.6861 241.132 44.0958 245.471 42.2825C249.81 40.4045 254.57 39.4655 259.751 39.4655C264.867 39.4655 269.432 40.3397 273.447 42.0882C277.527 43.8367 280.959 46.1357 283.744 48.9851C286.529 51.7698 288.536 54.8135 289.767 58.1162L279.567 63.0703C278.078 59.12 275.617 55.9468 272.185 53.5507C268.752 51.0898 264.608 49.8594 259.751 49.8594C254.958 49.8594 250.717 50.9927 247.025 53.2592C243.334 55.5258 240.452 58.6667 238.38 62.6818C236.372 66.6969 235.369 71.3919 235.369 76.767C235.369 82.142 236.405 86.8695 238.477 90.9493C240.614 94.9644 243.528 98.1053 247.22 100.372C250.911 102.574 255.153 103.675 259.945 103.675C263.96 103.675 267.619 102.865 270.922 101.246C274.289 99.5623 276.977 97.231 278.984 94.2521C280.992 91.2084 281.996 87.679 281.996 83.6639V78.7098L287.144 83.3724H259.751V73.6585H293.361V80.4583C293.361 85.7686 292.454 90.5284 290.641 94.7378C288.828 98.8824 286.367 102.412 283.258 105.326C280.15 108.24 276.588 110.442 272.573 111.931C268.558 113.421 264.349 114.166 259.945 114.166Z" fill="#212121"/>
<path d="M320.643 114.166C317.081 114.166 313.94 113.55 311.22 112.32C308.565 111.025 306.493 109.276 305.003 107.074C303.514 104.808 302.769 102.153 302.769 99.109C302.769 96.2596 303.384 93.7016 304.615 91.435C305.91 89.1684 307.885 87.258 310.54 85.7038C313.195 84.1496 316.53 83.0487 320.546 82.4011L338.808 79.3897V88.0351L322.683 90.8522C319.768 91.3703 317.631 92.3093 316.271 93.6692C314.911 94.9644 314.231 96.6482 314.231 98.7205C314.231 100.728 314.976 102.379 316.466 103.675C318.02 104.905 319.995 105.52 322.391 105.52C325.37 105.52 327.96 104.873 330.162 103.577C332.429 102.282 334.177 100.566 335.408 98.4291C336.638 96.2272 337.253 93.7987 337.253 91.1436V77.6412C337.253 75.0508 336.282 72.9462 334.339 71.3272C332.461 69.6434 329.936 68.8015 326.762 68.8015C323.848 68.8015 321.29 69.5787 319.088 71.1329C316.951 72.6224 315.365 74.5651 314.329 76.9613L305.197 72.3957C306.169 69.8053 307.755 67.5387 309.957 65.5959C312.159 63.5884 314.717 62.0342 317.631 60.9333C320.61 59.8323 323.751 59.2819 327.054 59.2819C331.198 59.2819 334.857 60.059 338.031 61.6132C341.269 63.1675 343.762 65.3369 345.51 68.1216C347.324 70.8415 348.23 74.0147 348.23 77.6412V113H337.739V103.48L339.973 103.772C338.743 105.909 337.156 107.754 335.214 109.309C333.336 110.863 331.166 112.061 328.705 112.903C326.309 113.745 323.622 114.166 320.643 114.166Z" fill="#212121"/>
<path d="M383.757 113.583C378.253 113.583 373.979 112.029 370.935 108.92C367.891 105.812 366.369 101.44 366.369 95.8063V70.3558H357.141V60.4476H358.598C361.059 60.4476 362.97 59.7352 364.33 58.3105C365.69 56.8858 366.369 54.943 366.369 52.4821V48.4023H377.346V60.4476H389.294V70.3558H377.346V95.3206C377.346 97.1339 377.638 98.6881 378.22 99.9833C378.803 101.214 379.742 102.185 381.038 102.897C382.333 103.545 384.016 103.869 386.089 103.869C386.607 103.869 387.19 103.836 387.837 103.772C388.485 103.707 389.1 103.642 389.683 103.577V113C388.776 113.129 387.773 113.259 386.672 113.389C385.571 113.518 384.599 113.583 383.757 113.583Z" fill="#212121"/>
<path d="M425.03 114.166C419.785 114.166 415.122 112.968 411.042 110.571C407.027 108.111 403.886 104.808 401.62 100.663C399.353 96.4539 398.22 91.7588 398.22 86.578C398.22 81.2678 399.353 76.5727 401.62 72.4928C403.951 68.413 407.059 65.2074 410.945 62.876C414.831 60.4799 419.234 59.2819 424.156 59.2819C428.106 59.2819 431.636 59.9619 434.744 61.3218C437.853 62.6818 440.475 64.5598 442.613 66.9559C444.75 69.2872 446.369 71.9748 447.469 75.0185C448.635 78.0622 449.218 81.3001 449.218 84.7324C449.218 85.5743 449.186 86.4485 449.121 87.3552C449.056 88.2618 448.927 89.1037 448.732 89.8808H406.865V81.1382H442.515L437.27 85.121C437.917 81.9477 437.691 79.1307 436.59 76.6698C435.554 74.1442 433.935 72.169 431.733 70.7443C429.596 69.2549 427.07 68.5101 424.156 68.5101C421.242 68.5101 418.651 69.2549 416.385 70.7443C414.118 72.169 412.37 74.2413 411.139 76.9613C409.909 79.6164 409.423 82.8544 409.682 86.6752C409.358 90.237 409.844 93.3454 411.139 96.0006C412.499 98.6557 414.377 100.728 416.773 102.217C419.234 103.707 422.019 104.452 425.127 104.452C428.301 104.452 430.988 103.739 433.19 102.315C435.457 100.89 437.237 99.0443 438.533 96.7777L447.469 101.149C446.433 103.61 444.814 105.844 442.613 107.852C440.475 109.794 437.885 111.349 434.841 112.514C431.862 113.615 428.592 114.166 425.03 114.166Z" fill="#212121"/>
<path d="M473.567 113L455.499 60.4476H467.155L480.949 102.315H476.869L490.954 60.4476H500.96L514.948 102.315H510.868L524.759 60.4476H536.416L518.251 113H508.342L494.16 70.1615H497.754L483.572 113H473.567Z" fill="#212121"/>
<path d="M558.691 114.166C555.129 114.166 551.988 113.55 549.268 112.32C546.613 111.025 544.541 109.276 543.052 107.074C541.562 104.808 540.817 102.153 540.817 99.109C540.817 96.2596 541.433 93.7016 542.663 91.435C543.958 89.1684 545.933 87.258 548.589 85.7038C551.244 84.1496 554.579 83.0487 558.594 82.4011L576.856 79.3897V88.0351L560.731 90.8522C557.817 91.3703 555.68 92.3093 554.32 93.6692C552.96 94.9644 552.28 96.6482 552.28 98.7205C552.28 100.728 553.025 102.379 554.514 103.675C556.068 104.905 558.043 105.52 560.44 105.52C563.418 105.52 566.009 104.873 568.211 103.577C570.477 102.282 572.226 100.566 573.456 98.4291C574.687 96.2272 575.302 93.7987 575.302 91.1436V77.6412C575.302 75.0508 574.33 72.9462 572.388 71.3272C570.51 69.6434 567.984 68.8015 564.811 68.8015C561.897 68.8015 559.339 69.5787 557.137 71.1329C555 72.6224 553.413 74.5651 552.377 76.9613L543.246 72.3957C544.217 69.8053 545.804 67.5387 548.006 65.5959C550.208 63.5884 552.766 62.0342 555.68 60.9333C558.659 59.8323 561.799 59.2819 565.102 59.2819C569.247 59.2819 572.906 60.059 576.079 61.6132C579.317 63.1675 581.81 65.3369 583.559 68.1216C585.372 70.8415 586.279 74.0147 586.279 77.6412V113H575.788V103.48L578.022 103.772C576.791 105.909 575.205 107.754 573.262 109.309C571.384 110.863 569.214 112.061 566.754 112.903C564.357 113.745 561.67 114.166 558.691 114.166Z" fill="#212121"/>
<path d="M604.686 134.468C603.391 134.468 602.096 134.338 600.801 134.079C599.57 133.885 598.437 133.561 597.401 133.108V123.685C598.178 123.88 599.117 124.041 600.218 124.171C601.319 124.365 602.388 124.462 603.424 124.462C606.467 124.462 608.702 123.782 610.126 122.422C611.616 121.127 612.943 119.087 614.109 116.303L617.606 108.337L617.412 117.566L594.681 60.4476H606.435L623.24 104.257H619.257L635.965 60.4476H647.816L624.6 118.731C623.37 121.84 621.815 124.56 619.937 126.891C618.124 129.287 615.955 131.133 613.429 132.428C610.968 133.788 608.054 134.468 604.686 134.468Z" fill="#212121"/>
<path d="M0 35.6098C0 15.943 15.943 0 35.6098 0H110.39C130.057 0 146 15.943 146 35.6098V110.39C146 130.057 130.057 146 110.39 146H35.6098C15.943 146 0 130.057 0 110.39V35.6098Z" fill="#E6D5FA"/>
<path d="M72.6798 39.1698C68.2792 39.1698 63.9217 40.0218 59.8561 41.6771C55.7904 43.3325 52.0963 45.7587 48.9846 48.8174C45.8729 51.8761 43.4045 55.5073 41.7205 59.5036C40.0364 63.4999 39.1697 67.7832 39.1697 72.1088C39.1697 76.4344 40.0364 80.7177 41.7205 84.714C43.4045 88.7104 45.8729 92.3415 48.9846 95.4002C52.0963 98.4589 55.7904 100.885 59.8561 102.54C63.9217 104.196 68.2792 105.048 72.6798 105.048L72.6798 39.1698Z" fill="#771AC9"/>
<path d="M77.787 39.1698H80.021C94.8267 39.1698 106.829 50.9677 106.829 65.521L77.787 39.1698Z" fill="#771AC9"/>
<path d="M106.829 81.5438V105.048H77.787V81.5438C77.787 73.9077 84.2883 67.7175 92.308 67.7175C100.328 67.7175 106.829 73.9077 106.829 81.5438Z" fill="#771AC9"/>
</svg>
